X: 1
T: Portpatrick
M: 6/8
L: 1/8
R: jig
K: Gmaj
|:e|dBG GAB|(3cdc B A2e|dBG GAB|A2B (3cdc e|
dBG GAB|(3cdc B A2D|BdB AcA|BGF G2:|
|:d|ece dBd|ece ~d3|efg dBG|A2B (3cdc e|
def {a}gfe|dcB A2D|BdB AcA|BGF G2:|
